X: 23
T:Pibddawns y Tant
T:The String Hornpipe
M:C
L:1/8
Q:150
C:Llewellyn Williams
S:Robin Huw Bowen
R:Hornpipe
A:Wales
Z:brian_martin12345@yahoo.com
K:D
(3ABc|d>cd>e f>dA>F|G>FG>A B>GE>G|F>AG>B A>cB>d|c>ea>g f>AB>c|!
d>cd>e f>dA>F|G>FG>A B>GE>G|F>fd>A B>ba>g|f>ed>cd2:||!
f>g|a>^ga>b a>bc'>a|d'>dc'>c b>Ba>A|g>fg>a b>ge>c|(3cde (3dcB A2(3ABc|!
d>DE>F G>AB>c|d>ef>g a>bc'>d'|b>ab>g f>ed>c|d2f2d2:||

